papirus/64x64/places/folder-games.svg

<?xml version="1.0" encoding="UTF-8" standalone="no"?>
<svg
   xmlns:dc="http://purl.org/dc/elements/1.1/"
   xmlns:cc="http://creativecommons.org/ns#"
   xmlns:rdf="http://www.w3.org/1999/02/22-rdf-syntax-ns#"
   xmlns:svg="http://www.w3.org/2000/svg"
   xmlns="http://www.w3.org/2000/svg"
   height="64"
   version="1.1"
   width="64"
   viewBox="0 0 64.000001 64.000001"
   id="svg2">
  <defs
     id="defs13" />
  <metadata
     id="metadata7">
    <rdf:RDF>
      <cc:Work
         rdf:about="">
        <dc:format>image/svg+xml</dc:format>
        <dc:type
           rdf:resource="http://purl.org/dc/dcmitype/StillImage" />
        <dc:title />
      </cc:Work>
    </rdf:RDF>
  </metadata>
  <g
     transform="translate(0 -988.36)"
     id="layer1">
    <path
       d="m7 1035.9v-34.988c0-1.3845 1.1235-2.653 2.5-2.5001h19.5l6 4.9992h19.628s2.3718 0 2.3718 2.4992v29.99c0 1.3845-1.115 2.4992-2.5 2.4992h-44.999c-1.385 0-2.5-1.1146-2.5-2.4992z"
       fill="#9b9b9b"
       id="path5171" />
    <path
       d="m33.68 1003.3-3.68 4.088h-20.5c-2.5 0-2.5 2.396-2.5 2.396v2s0-2.396 2.5-2.396h20.5l4.5-5h0.48633l-1.3066-1.0879zm22.355 1.5645c0.57756 0.4666 0.95676 1.2108 0.96289 2.0039-0.0091-1.0703-0.45872-1.6611-0.96289-2.0039z"
       opacity=".1"
       id="path5041" />
    <path
       d="m57 1040.9v-35c0-1.385-1.1235-2.653-2.5-2.5h-20l-4.5 5h-20.5c-2.5 0-2.5 2.3959-2.5 2.3959v30.104c0 1.385 1.115 2.5 2.5 2.5h45c1.385 0 2.5-1.115 2.5-2.5z"
       fill="#ababab"
       id="path5173" />
    <path
       fill="#fff"
       transform="translate(0 988.36)"
       d="m34.5 15l-4.5 5h-20.5c-2.5 0-2.5 2.396-2.5 2.396v1s0-2.396 2.5-2.396h20.5l4.5-5h20c1.377-0.153 2.5 1.115 2.5 2.5v-1c0-1.385-1.123-2.653-2.5-2.5h-20z"
       opacity=".1"
       id="path5029" />
    <path
       d="m7 1040.9v1c0 1.385 1.115 2.5 2.5 2.5h45c1.385 0 2.5-1.115 2.5-2.5v-1c0 1.385-1.115 2.5-2.5 2.5h-45c-1.385 0-2.5-1.115-2.5-2.5z"
       opacity=".2"
       id="path5034" />
    <path
       fill="#fff"
       transform="translate(0 988.36)"
       d="m9.5 10.014c-1.3765-0.1536-2.5 1.115-2.5 2.5v1c0-1.385 1.1235-2.654 2.5-2.5h19.5l6 4.998h19.629s2.371 0.001 2.371 2.5v-1c0-2.499-2.371-2.5-2.371-2.5h-19.629l-6-4.998h-19.5z"
       opacity=".1"
       id="path5024" />
  </g>
  <path
     id="path4279"
     d="M 37.292969 30 C 36.991794 30.0015 36.717435 30.10328 36.457031 30.300781 C 35.797965 30.803505 34.423661 31.341518 32 31.34375 C 29.576342 31.34635 28.202046 30.803505 27.542969 30.300781 C 27.282538 30.103282 27.03343 30.006314 26.730469 30.007812 C 26.427507 30.009113 26.07876 30.097232 25.722656 30.300781 C 24.425753 31.030923 23.232435 33.423408 22.583984 36.523438 C 22.03122 39.156768 21.828666 42.754789 22.158203 44.203125 C 22.445212 45.44796 22.939987 46 23.822266 46 C 25.129794 45.97608 26.774659 44.418966 27.816406 42.324219 C 28.569869 41.164655 30.315928 40.636924 32 40.695312 C 33.683947 40.632373 35.430005 41.164589 36.183594 42.324219 C 37.225341 44.418966 38.870206 45.976084 40.177734 46 C 41.060037 46 41.554763 45.448028 41.841797 44.203125 C 42.171336 42.754787 41.968787 39.156768 41.416016 36.523438 C 40.767578 33.423274 39.574247 31.030829 38.277344 30.300781 C 37.92124 30.0973 37.594147 29.998504 37.292969 30 z M 26 32 L 28 32 L 28 34 L 30 34 L 30 36 L 28 36 L 28 38 L 26 38 L 26 36 L 23.998047 36 L 23.998047 34 L 26 34 L 26 32 z M 34 32 A 1 1 0 0 1 35 33 A 1 1 0 0 1 34 34 A 1 1 0 0 1 33 33 A 1 1 0 0 1 34 32 z M 37 32 A 1 1 0 0 1 38 33 A 1 1 0 0 1 37 34 A 1 1 0 0 1 36 33 A 1 1 0 0 1 37 32 z M 36 35 A 1 1 0 0 1 37 36 A 1 1 0 0 1 36 37 A 1 1 0 0 1 35 36 A 1 1 0 0 1 36 35 z M 39 35 A 1 1 0 0 1 40 36 A 1 1 0 0 1 39 37 A 1 1 0 0 1 38 36 A 1 1 0 0 1 39 35 z "
     style="opacity:0.65;fill:#000000;fill-opacity:1" />
</svg>

<?xml version="1.0" encoding="UTF-8" standalone="no"?>
<svg id="svg2" xmlns:rdf="http://www.w3.org/1999/02/22-rdf-syntax-ns#" xmlns="http://www.w3.org/2000/svg" height="64" width="64" version="1.1" xmlns:cc="http://creativecommons.org/ns#" viewBox="0 0 64.000001 64.000001" xmlns:dc="http://purl.org/dc/elements/1.1/">
 <metadata id="metadata7">
  <rdf:RDF>
   <cc:Work rdf:about="">
    <dc:format>image/svg+xml</dc:format>
    <dc:type rdf:resource="http://purl.org/dc/dcmitype/StillImage"/>
    <dc:title/>
   </cc:Work>
  </rdf:RDF>
 </metadata>
 <g id="layer1" transform="translate(0 -988.36)">
  <path id="path5171" d="m7 1035.9v-34.988c0-1.3845 1.1235-2.653 2.5-2.5001h19.5l6 4.9992h19.628s2.3718 0 2.3718 2.4992v29.99c0 1.3845-1.115 2.4992-2.5 2.4992h-44.999c-1.385 0-2.5-1.1146-2.5-2.4992z" fill="#9b9b9b"/>
  <path id="path5041" opacity=".1" d="m33.68 1003.3-3.68 4.088h-20.5c-2.5 0-2.5 2.396-2.5 2.396v2s0-2.396 2.5-2.396h20.5l4.5-5h0.48633l-1.3066-1.0879zm22.355 1.5645c0.57756 0.4666 0.95676 1.2108 0.96289 2.0039-0.0091-1.0703-0.45872-1.6611-0.96289-2.0039z"/>
  <path id="path5173" d="m57 1040.9v-35c0-1.385-1.1235-2.653-2.5-2.5h-20l-4.5 5h-20.5c-2.5 0-2.5 2.3959-2.5 2.3959v30.104c0 1.385 1.115 2.5 2.5 2.5h45c1.385 0 2.5-1.115 2.5-2.5z" fill="#ababab"/>
  <path id="path5029" opacity=".1" d="m34.5 15l-4.5 5h-20.5c-2.5 0-2.5 2.396-2.5 2.396v1s0-2.396 2.5-2.396h20.5l4.5-5h20c1.377-0.153 2.5 1.115 2.5 2.5v-1c0-1.385-1.123-2.653-2.5-2.5h-20z" transform="translate(0 988.36)" fill="#fff"/>
  <path id="path5034" opacity=".2" d="m7 1040.9v1c0 1.385 1.115 2.5 2.5 2.5h45c1.385 0 2.5-1.115 2.5-2.5v-1c0 1.385-1.115 2.5-2.5 2.5h-45c-1.385 0-2.5-1.115-2.5-2.5z"/>
  <path id="path5024" opacity=".1" d="m9.5 10.014c-1.3765-0.1536-2.5 1.115-2.5 2.5v1c0-1.385 1.1235-2.654 2.5-2.5h19.5l6 4.998h19.629s2.371 0.001 2.371 2.5v-1c0-2.499-2.371-2.5-2.371-2.5h-19.629l-6-4.998h-19.5z" transform="translate(0 988.36)" fill="#fff"/>
 </g>
 <path id="path4279" opacity=".65" d="m37.293 30c-0.301 0.002-0.576 0.103-0.836 0.301-0.659 0.503-2.033 1.041-4.457 1.043s-3.798-0.54-4.457-1.043c-0.26-0.198-0.51-0.295-0.813-0.293-0.302 0.001-0.651 0.089-1.007 0.293-1.297 0.73-2.491 3.122-3.139 6.222-0.553 2.634-0.755 6.232-0.426 7.68 0.287 1.245 0.782 1.797 1.664 1.797 1.308-0.024 2.953-1.581 3.994-3.676 0.754-1.159 2.5-1.687 4.184-1.629 1.684-0.063 3.43 0.47 4.184 1.629 1.041 2.095 2.686 3.652 3.994 3.676 0.882 0 1.377-0.552 1.664-1.797 0.329-1.448 0.127-5.046-0.426-7.68-0.648-3.1-1.842-5.492-3.139-6.222-0.356-0.204-0.683-0.302-0.984-0.301zm-11.293 2h2v2h2v2h-2v2h-2v-2h-2.002v-2h2.002v-2zm8 0a1 1 0 0 1 1 1 1 1 0 0 1 -1 1 1 1 0 0 1 -1 -1 1 1 0 0 1 1 -1zm3 0a1 1 0 0 1 1 1 1 1 0 0 1 -1 1 1 1 0 0 1 -1 -1 1 1 0 0 1 1 -1zm-1 3a1 1 0 0 1 1 1 1 1 0 0 1 -1 1 1 1 0 0 1 -1 -1 1 1 0 0 1 1 -1zm3 0a1 1 0 0 1 1 1 1 1 0 0 1 -1 1 1 1 0 0 1 -1 -1 1 1 0 0 1 1 -1z"/>
</svg>
